public/svg/icon/snm.svg

<svg xmlns="http://www.w3.org/2000/svg" xmlns:xlink="http://www.w3.org/1999/xlink" width="32" height="32" viewBox="0 0 32 32"><defs><linearGradient id="snm-c" x1="50%" x2="50%" y1="0%" y2="100%"><stop offset="0%" stop-color="#FFF" stop-opacity=".5"/><stop offset="100%" stop-opacity=".5"/></linearGradient><circle id="snm-b" cx="16" cy="15" r="15"/><filter id="snm-a" width="111.7%" height="111.7%" x="-5.8%" y="-4.2%" filterUnits="objectBoundingBox"><feOffset dy=".5" in="SourceAlpha" result="shadowOffsetOuter1"/><feGaussianBlur in="shadowOffsetOuter1" result="shadowBlurOuter1" stdDeviation=".5"/><feComposite in="shadowBlurOuter1" in2="SourceAlpha" operator="out" result="shadowBlurOuter1"/><feColorMatrix in="shadowBlurOuter1" values="0 0 0 0 0 0 0 0 0 0 0 0 0 0 0 0 0 0 0.199473505 0"/></filter><path id="snm-e" d="M16,26 C9.93207,25.9819 5,21.057262 5,15 C5,8.94273804 9.93207,4.01820974 16,4 C22.06793,4.01820974 27,8.94273804 27,15 C27,21.057262 22.06793,25.9879333 16,26 Z M25.7548,16.7505485 C25.58474,17.1442519 25.18995,17.4228828 24.73433,17.4228828 C24.5883929,17.422851 24.4439034,17.3940327 24.30918,17.3380869 C24.69792,17.7439667 24.94091,18.2890522 24.94091,18.888767 C24.94091,19.0642826 24.9166,19.2279509 24.88019,19.3915094 C25.2933889,18.5560036 25.5877593,17.6671266 25.7548,16.7505485 Z M24.73433,16.8595875 C25.0396054,16.8595875 25.28708,16.6127941 25.28708,16.3083589 C25.28708,16.0039238 25.0396054,15.7571303 24.73433,15.7571303 C24.4290546,15.7571303 24.18158,16.0039238 24.18158,16.3083589 C24.1826649,16.6122165 24.4293045,16.8583241 24.734,16.8595875 L24.73433,16.8595875 Z M24.98337,10.832602 C25.159622,11.3307481 25.2501084,11.8550372 25.251,12.3832821 C25.2521162,13.4763151 24.8647577,14.534373 24.15771,15.36957 C24.32172,15.2727073 24.51609,15.2060114 24.72861,15.2060114 C25.30567,15.2060114 25.77944,15.648201 25.82795,16.2175296 C25.87657,15.8177929 25.90693,15.4179465 25.90693,15.0060333 C25.9140132,13.5637313 25.5985432,12.1379993 24.98348,10.832602 L24.98337,10.832602 Z M24.41852,12.3772488 C24.41852,10.2753401 22.7056,8.56121106 20.59195,8.56121106 C18.48424,8.56121106 16.76538,10.2694164 16.76538,12.3772488 C16.76538,14.4791575 18.4783,16.1932865 20.59195,16.1932865 C22.69966,16.1932865 24.41852,14.4790478 24.41852,12.3772488 Z M20.44004,18.888767 C20.4398864,18.0583815 20.9004222,17.2960587 21.63662,16.9080737 C20.7030315,17.1252927 19.7249147,17.0491164 18.83646,16.6899956 C19.5926005,17.2697638 20.1522845,18.0668163 20.44004,18.9736727 C20.4462,18.9372532 20.44004,18.9130101 20.44004,18.888767 Z M20.65872,20.3668276 C20.6576848,20.7342541 20.6128195,21.1002531 20.52507,21.4571084 C20.7065024,21.0940593 21.0779541,20.864303 21.48471,20.8635366 C21.5418995,20.863277 21.5989394,20.8693847 21.65477,20.8817464 C21.1863938,20.640745 20.8168733,20.2445068 20.60977,19.7611891 C20.6416342,19.9615183 20.6579991,20.1639951 20.65872,20.3668276 Z M22.68745,20.3002413 C23.47098,20.3002413 24.10876,19.6639974 24.10876,18.8888767 C24.10876,18.1075033 23.47076,17.4775121 22.68745,17.4775121 C21.90414,17.4775121 21.27219,18.113756 21.27219,18.8888767 C21.27219,19.6701404 21.90997,20.3001316 22.688,20.3001316 L22.68745,20.3002413 Z M23.62245,16.314502 C23.6240284,16.1280325 23.6720326,15.9448747 23.76215,15.7814831 C23.3588869,16.1542246 22.8946194,16.4553775 22.38946,16.6718956 C22.48659,16.6598289 22.58383,16.6476525 22.68712,16.6476525 C23.0913281,16.6469039 23.4881345,16.755767 23.83508,16.9625932 C23.696847,16.774626 23.6225323,16.5474906 23.623,16.3143923 L23.62245,16.314502 Z M15.99945,15.7147872 C16.5989227,15.7143711 17.1928218,15.829546 17.74845,16.053971 C16.8146571,15.3377258 16.1893071,14.2938339 15.99945,13.1343791 C15.80508,14.3216323 15.16125,15.3513602 14.25045,16.053971 C14.79099,15.8419263 15.38026,15.7147872 15.99945,15.7147872 Z M15.99945,9.54245283 C15.5757696,9.54331759 15.1606454,9.42355293 14.80287,9.19723563 C15.4339702,9.86382746 15.8508582,10.7033308 16,11.6079421 C16.1528863,10.7046166 16.5690443,9.86615989 17.19658,9.19712593 C16.8388138,9.42347623 16.4236905,9.54327871 16,9.54245283 L15.99945,9.54245283 Z M18.27117,7.27698552 C18.2710065,7.78449922 18.0998989,8.27724793 17.7853,8.67617376 C18.2570969,8.31928768 18.7932286,8.05607471 19.36457,7.9008337 C19.34026,7.9008337 19.322,7.90686705 19.30385,7.90686705 C18.83613,7.90686705 18.43485,7.61616937 18.27128,7.20425625 C18.266,7.22849934 18.27172,7.25274243 18.27172,7.27698552 L18.27117,7.27698552 Z M19.99619,5.93867925 C20.24523,6.14458096 20.40924,6.44745502 20.40924,6.79278192 C20.4098314,7.23123874 20.1498787,7.62838549 19.74715,7.80430013 C20.0257212,7.75351664 20.3082172,7.72716174 20.5914,7.72553752 C22.01876,7.72553752 23.28827,8.36759544 24.1444,9.36704695 C23.1007425,7.86880349 21.6665946,6.68325345 19.99674,5.93835015 L19.99619,5.93867925 Z M19.29769,6.24758666 C18.9924146,6.24758666 18.74494,6.49438012 18.74494,6.79881527 C18.74494,7.10325042 18.9924146,7.35004388 19.29769,7.35004388 C19.6029654,7.35004388 19.85044,7.10325042 19.85044,6.79881527 C19.8495363,6.4948718 19.6029108,6.24858219 19.29813,6.24725757 L19.29769,6.24758666 Z M16.6864,5.11452391 C17.4300639,5.35146468 17.9991623,5.95331213 18.19274,6.70754717 C18.23531,6.13810882 18.70908,5.68385257 19.29208,5.68385257 C19.328797,5.68487567 19.3653671,5.68891154 19.40142,5.69591926 C18.55112,5.3810882 17.63394,5.18725318 16.6864,5.11452391 Z M14.56659,7.27698552 C14.56659,8.06439228 15.21042,8.70601141 16,8.70601141 C16.78958,8.70601141 17.43341,8.06395349 17.43341,7.27654673 C17.43341,6.48913997 16.78958,5.84752084 16,5.84752084 C15.21042,5.84752084 14.56659,6.48957876 14.56659,7.27698552 Z M12.59253,5.69602896 C12.6285829,5.68902173 12.6651531,5.68498587 12.70187,5.68396226 C13.28487,5.68396226 13.75875,6.13218517 13.80121,6.70765687 C13.9947545,5.95337988 14.5638584,5.35148508 15.30755,5.11452391 C14.36001,5.18725318 13.44888,5.3810882 12.59253,5.69602896 Z M13.72828,7.27698552 C13.7272689,7.25258613 13.7293012,7.22815598 13.73433,7.20425625 C13.57032,7.61616937 13.16948,7.90686705 12.70176,7.90686705 C12.67745,7.90686705 12.65919,7.9008337 12.64104,7.9008337 C13.2119023,8.05733543 13.7478034,8.32043523 14.22031,8.67617376 C13.9013211,8.27925689 13.7277415,7.78564776 13.72828,7.27698552 Z M12.14912,6.79848618 C12.14912,7.10292133 12.3965946,7.34971479 12.70187,7.34971479 C13.0071454,7.34971479 13.25462,7.10292133 13.25462,6.79848618 C13.25462,6.49405102 13.0071454,6.24725757 12.70187,6.24725757 C12.3970456,6.24834066 12.1502061,6.49450079 12.14912,6.79848618 Z M7.85483,9.37275121 C8.71129,8.36726634 9.98069,7.73124177 11.40783,7.73124177 C11.6910269,7.73258122 11.9735479,7.75893845 12.25208,7.81000439 C11.8981092,7.65621732 11.6506255,7.3289478 11.5996761,6.9472733 C11.5487268,6.5655988 11.7017393,6.18516129 12.00304,5.9443835 C10.32686,6.68341378 8.8874,7.88273366 7.85483,9.37275121 Z M7.58148,12.3772488 C7.58148,14.4791575 9.2944,16.1932865 11.40805,16.1932865 C13.51576,16.1932865 15.23462,14.4850812 15.23462,12.3772488 C15.23462,10.2753401 13.5217,8.56121106 11.40805,8.56121106 C9.30034,8.56713471 7.58148,10.2753401 7.58148,12.3772488 Z M11.55996,18.888767 C11.55996,18.9130101 11.55391,18.9436156 11.55391,18.9675296 C11.8432717,18.0614953 12.4026471,17.2649205 13.15749,16.6839623 C12.2689362,17.043152 11.2906932,17.1193292 10.357,16.9020404 C11.07398,17.2835674 11.55996,18.028631 11.55996,18.888767 Z M8.377,16.3143923 C8.37804787,16.5486058 8.30113591,16.776546 8.15832,16.9624835 C8.50538491,16.755811 8.90226892,16.6471371 9.3065,16.6480913 C9.4062616,16.6468803 9.50591744,16.6549968 9.60416,16.6723344 C9.09652333,16.4602029 8.6314637,16.1584117 8.23136,15.7814831 C8.32683127,15.9429306 8.37712577,16.1269625 8.377,16.3143923 Z M7.89113,18.888767 C7.89113,19.6701404 8.52913,20.3001316 9.30639,20.3001316 C10.08992,20.3001316 10.72165,19.6638877 10.72165,18.888767 C10.72165,18.1073936 10.08365,17.4774024 9.30639,17.4774024 C8.52902,17.471369 7.89124,18.1070645 7.89124,18.888767 L7.89113,18.888767 Z M10.33896,20.8816367 C10.39396,20.8756033 10.4483,20.8634269 10.50902,20.8634269 C10.9157759,20.8641933 11.2872276,21.0939496 11.46866,21.4569987 C11.3809572,21.1001744 11.3361289,20.734213 11.33512,20.3668276 C11.3369977,20.1622337 11.3512134,19.9579377 11.37769,19.7550461 C11.1752037,20.2407568 10.8074248,20.6396864 10.33907,20.8816367 L10.33896,20.8816367 Z M6.166,16.2114963 C6.21462,15.648201 6.68839,15.1999781 7.26534,15.1999781 C7.46714208,15.2010622 7.66473062,15.257659 7.83635,15.3635366 C7.12930235,14.5283397 6.74194379,13.4702817 6.74306,12.3772488 C6.74306,11.8320535 6.84019,11.3172444 7.01036,10.8265687 C6.41515,12.0925845 6.08713,13.5099824 6.08713,15 C6.08860787,15.4050586 6.11494712,15.8096473 6.166,16.2114963 Z M7.266,15.7632734 C6.9607246,15.7632734 6.71325,16.0100668 6.71325,16.314502 C6.71325,16.6189371 6.9607246,16.8657306 7.266,16.8657306 C7.5712754,16.8657306 7.81875,16.6189371 7.81875,16.314502 C7.81766392,16.0105166 7.57082439,15.7643565 7.266,15.7632734 Z M7.05953,18.8888767 C7.05911124,18.309575 7.28582631,17.7530674 7.69126,17.3381966 C7.55671507,17.3947239 7.41210661,17.423566 7.26611,17.4229925 C6.8106,17.4229925 6.4157,17.1443616 6.24564,16.7506582 C6.4157,17.6830847 6.70764,18.5677929 7.12025,19.3916191 C7.0834,19.2279509 7.05909,19.0643923 7.05909,18.888767 L7.05953,18.8888767 Z M9.90215,21.0513383 C9.71383,21.1061869 9.51341,21.1301009 9.30694,21.1301009 C8.71778,21.1301009 8.18329,20.8997367 7.78234,20.5303861 C8.31192036,21.3127039 8.94995128,22.0162699 9.67742,22.6201185 C9.52562,22.4323168 9.42838,22.202172 9.42838,21.9417508 C9.42855045,21.5850598 9.60579606,21.2515902 9.90171,21.0512286 L9.90215,21.0513383 Z M9.98718,21.9417508 C9.98718,22.2294647 10.221062,22.4627029 10.50957,22.4627029 C10.798078,22.4627029 11.03196,22.2294647 11.03196,21.9417508 C11.03196,21.6540368 10.798078,21.4207986 10.50957,21.4207986 C10.2218057,21.4226501 9.98889951,21.6546709 9.98674,21.9416411 L9.98718,21.9417508 Z M14.658,24.8188899 C13.2120633,24.380595 12.0673907,23.2729018 11.5846,21.8447784 C11.5846,21.8750548 11.5967,21.9053313 11.5967,21.9416411 C11.5984173,22.3127846 11.4077318,22.6584728 11.092477,22.8557322 C10.7772223,23.0529916 10.3821458,23.0738231 10.04779,22.9108161 C11.36559,23.9042343 12.94475,24.582602 14.658,24.8188899 Z M19.82052,20.3668276 C19.82052,18.2649188 18.1076,16.5568232 16,16.5507898 C13.89229,16.5507898 12.17948,18.2589952 12.17948,20.3668276 C12.17948,22.4746599 13.89229,24.1768319 16,24.1828653 C18.10771,24.1768319 19.82052,22.4686266 19.82052,20.3668276 Z M21.95859,22.9109258 C21.6242342,23.0739327 21.2291577,23.0531013 20.913903,22.8558419 C20.5986482,22.6585825 20.4079627,22.3128943 20.40968,21.9417508 C20.4107179,21.9091608 20.4147684,21.8767359 20.42178,21.8448881 C19.9389893,23.2730115 18.7943167,24.3807047 17.34838,24.8189996 C19.05525,24.582602 20.63441,23.9042343 21.95859,22.9108161 L21.95859,22.9109258 Z M22.01359,21.9417508 C22.01359,21.6540368 21.779708,21.4207986 21.4912,21.4207986 C21.202692,21.4207986 20.96881,21.6540368 20.96881,21.9417508 C20.96881,22.2294647 21.202692,22.4627029 21.4912,22.4627029 C21.7787487,22.4604323 22.0112253,22.2284001 22.01326,21.9416411 L22.01359,21.9417508 Z M24.2181,20.5302764 C23.81726,20.8997367 23.2831,21.1299912 22.6935,21.1299912 C22.4925623,21.1288383 22.2925757,21.1023746 22.09829,21.0512286 C22.394339,21.2514693 22.5717541,21.5849067 22.57206,21.9416411 C22.57206,22.2020623 22.47493,22.4323168 22.32302,22.6200088 C23.0504887,22.0161602 23.6885196,21.3125942 24.2181,20.5302764 Z"/><filter id="snm-d" width="115.9%" height="115.9%" x="-8%" y="-5.7%" filterUnits="objectBoundingBox"><feOffset dy=".5" in="SourceAlpha" result="shadowOffsetOuter1"/><feGaussianBlur in="shadowOffsetOuter1" result="shadowBlurOuter1" stdDeviation=".5"/><feColorMatrix in="shadowBlurOuter1" values="0 0 0 0 0 0 0 0 0 0 0 0 0 0 0 0 0 0 0.204257246 0"/></filter></defs><g fill="none" fill-rule="evenodd"><g fill-rule="nonzero"><use fill="#000" filter="url(#snm-a)" xlink:href="#snm-b"/><use fill="#0B1C26" fill-rule="evenodd" xlink:href="#snm-b"/><use fill="url(#snm-c)" fill-rule="evenodd" style="mix-blend-mode:soft-light" xlink:href="#snm-b"/><circle cx="16" cy="15" r="14.5" stroke="#000" stroke-opacity=".097"/></g><g fill-rule="nonzero"><use fill="#000" filter="url(#snm-d)" xlink:href="#snm-e"/><use fill="#FFF" fill-rule="evenodd" xlink:href="#snm-e"/></g></g></svg>

<svg xmlns="http://www.w3.org/2000/svg" xmlns:xlink="http://www.w3.org/1999/xlink" width="32" height="32" viewBox="0 0 32 32"><defs><filter id="a" width="111.7%" height="111.7%" x="-5.8%" y="-4.2%" filterUnits="objectBoundingBox"><feOffset dy=".5" in="SourceAlpha" result="shadowOffsetOuter1"/><feGaussianBlur in="shadowOffsetOuter1" result="shadowBlurOuter1" stdDeviation=".5"/><feComposite in="shadowBlurOuter1" in2="SourceAlpha" operator="out" result="shadowBlurOuter1"/><feColorMatrix in="shadowBlurOuter1" values="0 0 0 0 0 0 0 0 0 0 0 0 0 0 0 0 0 0 0.199473505 0"/></filter><filter id="d" width="115.9%" height="115.9%" x="-8%" y="-5.7%" filterUnits="objectBoundingBox"><feOffset dy=".5" in="SourceAlpha" result="shadowOffsetOuter1"/><feGaussianBlur in="shadowOffsetOuter1" result="shadowBlurOuter1" stdDeviation=".5"/><feColorMatrix in="shadowBlurOuter1" values="0 0 0 0 0 0 0 0 0 0 0 0 0 0 0 0 0 0 0.204257246 0"/></filter><linearGradient id="c" x1="50%" x2="50%" y1="0%" y2="100%"><stop offset="0%" stop-color="#FFF" stop-opacity=".5"/><stop offset="100%" stop-opacity=".5"/></linearGradient><circle id="b" cx="16" cy="15" r="15"/><path id="e" d="M16 26c-6.068-.018-11-4.943-11-11S9.932 4.018 16 4c6.068.018 11 4.943 11 11s-4.932 10.988-11 11zm9.755-9.25a1.115 1.115 0 01-1.446.588c.389.406.632.951.632 1.55 0 .176-.024.34-.06.504.412-.836.707-1.725.874-2.641zm-1.02.11a.552.552 0 10.002-1.104.552.552 0 00-.003 1.104zm.248-6.027a4.614 4.614 0 01-.826 4.537 1.13 1.13 0 01.572-.164c.577 0 1.05.442 1.099 1.012.049-.4.079-.8.079-1.212a9.68 9.68 0 00-.924-4.173zm-.564 1.544a3.825 3.825 0 00-3.827-3.816 3.825 3.825 0 00-3.827 3.816 3.825 3.825 0 003.827 3.816 3.829 3.829 0 003.827-3.816zM20.44 18.89c0-.83.46-1.593 1.197-1.98a4.657 4.657 0 01-2.8-.219 4.65 4.65 0 011.603 2.284c.006-.037 0-.061 0-.085zm.219 1.478a4.62 4.62 0 01-.134 1.09c.182-.363.553-.593.96-.593a.77.77 0 01.17.018 2.263 2.263 0 01-1.045-1.12c.032.2.048.402.049.605zm2.028-.067a1.42 1.42 0 001.422-1.411c0-.781-.638-1.411-1.422-1.411-.783 0-1.415.636-1.415 1.41 0 .782.638 1.412 1.416 1.412zm.935-3.985c.002-.187.05-.37.14-.534a4.82 4.82 0 01-1.373.89c.098-.011.195-.023.298-.023a2.23 2.23 0 011.148.315 1.09 1.09 0 01-.212-.649zm-7.623-.6c.6 0 1.194.115 1.75.339a4.621 4.621 0 01-1.75-2.92 4.632 4.632 0 01-1.749 2.92 4.787 4.787 0 011.75-.34zm0-6.173a2.23 2.23 0 01-1.196-.345A4.593 4.593 0 0116 11.607a4.66 4.66 0 011.197-2.41A2.23 2.23 0 0116 9.542zm2.272-2.265c0 .507-.171 1-.486 1.4a4.63 4.63 0 011.58-.776c-.025 0-.043.006-.061.006-.468 0-.87-.29-1.033-.703-.005.024 0 .049 0 .073zm1.725-1.338c.25.206.413.508.413.854 0 .438-.26.835-.662 1.011a4.666 4.666 0 014.397 1.563 10.038 10.038 0 00-4.147-3.429zm-.698.309a.552.552 0 10-.003 1.104.552.552 0 00.003-1.105zm-2.612-1.133a2.263 2.263 0 011.507 1.593 1.105 1.105 0 011.1-1.024.671.671 0 01.108.012 10.042 10.042 0 00-2.715-.581zm-2.12 2.162a1.434 1.434 0 002.867 0 1.434 1.434 0 00-2.866 0zm-1.973-1.581a.671.671 0 01.109-.012 1.1 1.1 0 011.1 1.024 2.263 2.263 0 011.506-1.593c-.948.072-1.86.266-2.715.581zm1.135 1.581a.294.294 0 01.006-.073 1.112 1.112 0 01-1.032.703c-.025 0-.043-.006-.061-.006.57.156 1.107.42 1.58.775a2.23 2.23 0 01-.493-1.399zm-1.579-.479a.552.552 0 101.104-.001.552.552 0 00-1.104.001zM7.855 9.373a4.647 4.647 0 014.397-1.563 1.1 1.1 0 01-.249-1.866 9.948 9.948 0 00-4.148 3.429zm-.274 3.004a3.825 3.825 0 003.827 3.816 3.825 3.825 0 003.827-3.816 3.825 3.825 0 00-3.827-3.816c-2.108.006-3.827 1.714-3.827 3.816zm3.979 6.512c0 .024-.006.055-.006.079a4.678 4.678 0 011.603-2.284 4.657 4.657 0 01-2.8.218 2.249 2.249 0 011.203 1.987zm-3.183-2.575c.001.235-.076.463-.219.648a2.234 2.234 0 011.149-.314c.1-.001.199.007.297.024a4.574 4.574 0 01-1.373-.89c.096.16.146.345.146.532zm-.486 2.575a1.415 1.415 0 002.83 0c0-.782-.637-1.412-1.415-1.412a1.41 1.41 0 00-1.415 1.412zm2.448 1.993c.055-.006.11-.019.17-.019.407.001.778.23.96.594a4.62 4.62 0 01-.134-1.09c.002-.205.016-.41.043-.612-.203.486-.57.885-1.039 1.127zm-4.173-4.67a1.108 1.108 0 011.1-1.012c.201.001.399.058.57.164a4.614 4.614 0 01-.826-4.537 9.79 9.79 0 00-.844 5.384zm1.1-.449a.552.552 0 10-.002 1.104.552.552 0 00.002-1.104zM7.06 18.89c0-.58.226-1.136.631-1.55a1.116 1.116 0 01-1.446-.588c.17.932.463 1.817.875 2.64a2.256 2.256 0 01-.06-.502zm2.842 2.162a2.245 2.245 0 01-2.12-.521c.53.783 1.168 1.486 1.895 2.09a1.07 1.07 0 01-.249-.678c0-.357.178-.69.474-.89zm.085.89a.522.522 0 101.044 0 .522.522 0 00-1.044 0zm4.671 2.878a4.674 4.674 0 01-3.073-2.974c0 .03.012.06.012.097a1.079 1.079 0 01-1.549.97 9.912 9.912 0 004.61 1.907zm5.163-4.452a3.82 3.82 0 10-7.641 0A3.823 3.823 0 0016 24.183a3.827 3.827 0 003.82-3.816zm2.138 2.544a1.08 1.08 0 01-1.045-.055 1.073 1.073 0 01-.504-.914.529.529 0 01.012-.097 4.674 4.674 0 01-3.074 2.974 9.969 9.969 0 004.61-1.908zm.055-.97a.522.522 0 10-.523.522.526.526 0 00.522-.521zm2.204-1.41a2.243 2.243 0 01-2.12.52c.296.2.474.534.474.89 0 .261-.097.491-.249.679a10.005 10.005 0 001.895-2.09z"/></defs><g fill="none"><use fill="#000" filter="url(#a)" xlink:href="#b"/><use fill="#0B1C26" fill-rule="evenodd" xlink:href="#b"/><use fill="url(#c)" fill-rule="evenodd" style="mix-blend-mode:soft-light" xlink:href="#b"/><circle cx="16" cy="15" r="14.5" stroke="#000" stroke-opacity=".097"/><use fill="#000" filter="url(#d)" xlink:href="#e"/><use fill="#FFF" fill-rule="evenodd" xlink:href="#e"/></g></svg>
